X: 35749
T: Salamanca, The
R: reel
M: 4/4
K: Dmajor
AD (3FED AD (3FED|Adcd fedc|BE~E2 BE~E2|Beed cdeg|
fB~B2 fB~B2|fgef dfag|fdec dBAG|1 FAEF D2dB:|2 FAEF D2fg||
|:afdf gbeg|fdcd BAFB|Addc defg|(3aba gb a2fg|
~a3f ~g3e|~f3e dfag|fdec dBAG|1 FGEF D2fg:|2 FAEF D2dB||

